invoice-outline.svg

<svg  viewBox="0 0 24 24" fill="currentColor"><path  d="M21 22L18 20L15 22L12 20L9 22L6 20L3 22V3H21V22M19 18.26V5H5V18.26L6 17.6L9 19.6L12 17.6L15 19.6L18 17.6L19 18.26Z"/></svg>

<svg fill="currentColor" viewBox="0 0 24 24"><path d="m21 22-3-2-3 2-3-2-3 2-3-2-3 2V3h18zm-2-3.74V5H5v13.26l1-.66 3 2 3-2 3 2 3-2z"/></svg>
